X:1
T:Jack's Welcome Home
M:C
L:1/8
Q:80
C:Rob MacNeil
S:March
K:HP
[| {g}A2{GdGe}Ad{g}f3/2e/2{g}dA | \
{gBd}B3/2A/2{g}GA{GdG}B2-Be | \
{gcd}c3/2d/2{gef}ed{gcd}c3/2B/2{g}Ac |
{Gdc}d3/2e/2{g}fa{ef}e2-ef | \
{g}A2{GdGe}Ad{g}f3/2e/2{g}dA | \
{gBd}B3/2A/2{g}GA{GdG}B2-Be |
{gcd}c3/2B/2{g}A{d}c{g}eg{fg}fe | \
{g}f/2a3/2{cd}ce{Gdc}d3A|]
{ag}a3/2g/2{a}fafd{gde}dA |
{gBd}B3/2A/2{g}GA{GdG}B2-Be | \
{gcd}c3/2d/2{gef}ed{gcd}c3/2B/2{g}Ac | \
{Gdc}d3/2e/2{g}fa{ef}e2-eA |
{ag}a3/2g/2{a}fafd{gde}dA | \
{gBd}B3/2A/2{g}GA{GdG}B2-Be | \
{gcd}c3/2B/2{g}A{d}c{g}eg{fg}fe |
{g}f/2a3/2{cd}ce{Gdc}d4|]
